public/assets/rock.svg

<svg width="210" height="274" viewBox="0 0 210 274" fill="none" xmlns="http://www.w3.org/2000/svg">
<path d="M12.793 10.0962L209.66 22.4472L201.139 266.718L21.0276 273.937L12.793 10.0962Z" fill="#2E5A9C"/>
<path d="M0.574219 0.416504L197.442 12.7675L188.921 261.163L8.80886 268.382L0.574219 0.416504Z" fill="#F87980"/>
<path d="M36.9081 47.9394C39.0841 46.4034 40.3641 44.1954 40.3641 41.7634C40.3641 37.6354 37.7401 35.3634 33.1001 35.3634L23.2761 35.3954L23.5961 50.0194L23.2761 56.0994H29.7081L29.4841 49.9234H31.6281C32.4921 51.9714 33.4521 53.9874 34.3801 55.9714L34.9881 56.4834C37.1961 56.3554 39.3401 55.9394 41.4201 55.2994L41.5161 54.5954C39.8841 52.4194 38.3481 50.1794 36.9081 47.9394ZM33.6121 42.4034C33.6121 43.9394 33.1001 44.8354 31.8841 45.3794L29.5481 45.2514L29.6761 39.9074L30.8281 39.8114C32.7801 39.9074 33.6121 40.6754 33.6121 42.4034ZM52.1431 35.0114C45.5511 35.0114 41.7751 39.0434 41.7751 46.1154C41.7751 52.7074 45.1991 56.4834 51.2151 56.4834C57.8071 56.4834 61.5831 52.3874 61.5831 45.2194C61.5831 38.7234 58.1591 35.0114 52.1431 35.0114ZM51.5671 40.1314C54.1591 40.1314 54.8631 41.4434 54.8631 46.5954C54.8631 50.6914 54.1911 51.7474 51.7911 51.7474C49.1991 51.7474 48.4951 50.4354 48.4951 45.2514C48.4951 41.1874 49.1671 40.1314 51.5671 40.1314ZM73.4013 35.0434C66.5533 35.0434 62.6813 39.0434 62.6813 45.9234C62.6813 52.7394 66.1053 56.4514 73.0493 56.4514C74.4573 56.4514 75.9933 56.3234 77.4973 55.8434L78.0093 50.7874L77.4973 50.4674C76.3453 50.8834 74.7133 51.1394 73.5613 51.1394C70.7453 51.1394 69.4653 49.3154 69.4653 45.1874C69.4653 41.6354 70.5853 40.2594 73.1453 40.2594C74.3613 40.2594 75.9613 40.6434 77.0813 41.2514L77.4973 40.9954L78.5853 35.9074C77.0493 35.3634 75.3213 35.0434 73.4013 35.0434ZM98.6388 35.3954H91.8548L90.7668 37.6354L86.7988 44.0354L87.0228 35.3954H80.4948L80.8148 50.0194L80.4948 56.0994H86.9268L86.6708 49.3794L86.7348 46.5954C88.4628 49.8274 90.2548 52.9634 92.0788 56.0994L92.7828 56.4834C94.9268 56.2914 97.0388 55.9394 99.1828 55.4594L99.2788 54.7554C96.9108 51.6514 94.6388 48.4514 92.5588 45.1874L98.6388 35.3954ZM117.869 45.8914L118.093 35.3954H111.565L111.853 48.3234C111.885 50.4994 111.053 51.4274 109.037 51.4274C107.053 51.4274 106.253 50.4994 106.285 48.3234L106.573 35.3954H100.141L100.333 45.8914L100.237 49.1874C100.109 53.8914 103.181 56.4834 108.781 56.4834C114.573 56.4834 117.805 53.8914 117.837 49.1874L117.869 45.8914ZM138.35 56.0994L132.686 35.3954H124.942L118.67 56.0994H124.942L125.486 52.6434L128.11 52.5154L131.246 52.5794L131.278 52.6754L131.854 56.0994H138.35ZM130.286 47.9074L128.494 47.9394L126.702 47.9074L128.494 41.1234H128.878L130.286 47.9074ZM154.221 47.9394C156.397 46.4034 157.677 44.1954 157.677 41.7634C157.677 37.6354 155.053 35.3634 150.413 35.3634L140.589 35.3954L140.909 50.0194L140.589 56.0994H147.021L146.797 49.9234H148.941C149.805 51.9714 150.765 53.9874 151.693 55.9714L152.301 56.4834C154.509 56.3554 156.653 55.9394 158.733 55.2994L158.829 54.5954C157.197 52.4194 155.661 50.1794 154.221 47.9394ZM150.925 42.4034C150.925 43.9394 150.413 44.8354 149.197 45.3794L146.861 45.2514L146.989 39.9074L148.141 39.8114C150.093 39.9074 150.925 40.6754 150.925 42.4034ZM174.96 35.8434L174.608 35.3954H159.152L158.8 40.0674L159.184 40.5154L163.44 40.3234H163.856L164.016 50.0194L163.696 56.0994H170.096L169.84 49.3794L170 40.3234H170.384L174.608 40.5154L174.96 35.8434Z" fill="#2C1E25"/>
<g clip-path="url(#clip0)">
<path d="M70.1073 197.599L71.0955 192.001L70.1073 184.721L65.5672 178.808L64.8871 175.167L69.8824 163.011L78.9915 142.421L90.6788 118.141L102.695 89.9923L113.344 78.9888L124.855 77.502L136.174 82.2597L141.166 92.0027L141.941 102.992L138.278 110.835L131.386 117.16L122.61 121.307L118.064 126.422L119.473 136.593L123.313 155.697L123.842 167.431L120.576 177.44L114.27 178.381L107.598 180.492L101.322 184.769L96.4559 192.158L95.2345 196.693L70.1073 197.599Z" fill="#FFF1F0"/>
<path d="M107.926 98.0575L109.751 100.382L108.452 104.782L104.926 106.155L101.647 102.228L103.859 98.5108L107.926 98.0575Z" fill="#2C1E25"/>
<path d="M101.211 114.118L102.999 117.447L100.86 122.992L97.2075 122.178L95.0453 117.781L96.8231 113.861L101.211 114.118Z" fill="#2C1E25"/>
<path d="M93.746 129.347L95.3539 132.049L93.9539 135.707L90.7825 136.919L88.2865 134.738L87.7732 130.228L89.307 129.078L93.746 129.347Z" fill="#2C1E25"/>
<path d="M86.8156 143.497L88.7703 145.957L86.4933 150.565L82.8159 149.267L81.6619 146.319L83.8479 143.316L86.8156 143.497Z" fill="#2C1E25"/>
<path d="M81.2699 157.048L82.4349 160.424L80.3758 163.456L76.9766 163.658L75.4203 159.529L77.8459 156.286L81.2699 157.048Z" fill="#2C1E25"/>
<path d="M75.9015 170.879L76.3251 174.357L73.004 176.122L70.138 175.484L69.1728 172.765L71.5394 169.189L75.8765 170.154L75.9015 170.879Z" fill="#2C1E25"/>
<path d="M70.065 162.545L67.8981 161.637L66.1051 162.516L60.0775 160.535L59.8332 158.882L62.5918 154.861L69.4334 157.849L69.0267 159.437L70.9229 160.605L70.065 162.545Z" fill="#2C1E25"/>
<path d="M75.6307 149.985L74.0074 149.624L73.1078 150.676L68.723 149.327L65.5283 146.697C65.5283 146.697 68.0701 142.334 68.2223 142.368C68.3744 142.402 71.8128 142.741 71.8128 142.741L74.7428 144.886L76.0468 146.561L75.1643 147.297L76.4745 147.988L75.6307 149.985Z" fill="#2C1E25"/>
<path d="M81.3647 137.488L79.4035 136.492L78.8562 137.516L74.2401 136.488L71.6932 134.776L72.8516 129.572L75.3118 130.12L79.572 132.507L81.0988 134.019L80.1656 134.504L82.3522 135.443L81.3647 137.488Z" fill="#2C1E25"/>
<path d="M87.6658 124.371L85.8288 123.296L85.5349 124.616L82.5875 123.267L77.42 120.412L78.3092 117.972L79.6685 116.41L83.3312 118.85L86.7408 120.275L86.3399 121.358L88.6534 122.326L87.6658 124.371Z" fill="#2C1E25"/>
<path d="M93.9611 110.454L91.5661 109.255L90.9059 110.546L87.4193 110.783L82.7081 108.508L84.0665 103.482L87.2784 100.414L93.0574 103.512L92.7884 105.797L92.8495 107.436L94.9009 108.265L93.9611 110.454Z" fill="#2C1E25"/>
<path d="M100.251 95.7085L98.4193 94.8479L95.6021 97.8173L91.519 96.189L90.0613 91.9749L90.8694 88.3451L94.7916 85.1954L100.43 87.9691L99.6521 92.7779L101.298 93.2775L100.251 95.7085Z" fill="#2C1E25"/>
<path d="M73.0057 176.122L71.8418 197.562L72.8747 197.562L73.9504 175.107L73.0057 176.122Z" fill="#2C1E25"/>
<path d="M77.004 197.358L80.8918 162.692L80.1449 162.818L76.281 197.358L77.004 197.358Z" fill="#2C1E25"/>
<path d="M80.0681 197.252L86.1947 149.753L86.7671 149.214L81.1698 197.252L80.0681 197.252Z" fill="#2C1E25"/>
<path d="M84.4306 197.081L92.5781 134.948L93.2122 135.089L85.1978 197.081L84.4306 197.081Z" fill="#2C1E25"/>
<path d="M88.6386 196.913L99.7812 120.887L100.441 121.034L89.241 196.913L88.6386 196.913Z" fill="#2C1E25"/>
<path d="M92.1439 196.776L107.812 102.401L108.269 102.503L92.8363 196.776L92.1439 196.776Z" fill="#2C1E25"/>
<path d="M92.4997 167.113L98.9171 167.582L99.2113 170.685L92.1823 170.212L92.4997 167.113Z" fill="#2C1E25"/>
</g>
<path d="M49.444 224.867C51.524 224.867 53.227 225.335 54.553 226.271C55.879 227.181 56.542 228.468 56.542 230.132C56.542 231.198 56.217 232.329 55.567 233.525C54.943 234.695 53.877 236.034 52.369 237.542L50.653 239.258L50.77 239.453H53.773L57.556 239.063L57.946 239.531L57.088 245.537L51.472 245.225H42.502L41.098 245.342L40.747 245.069V240.467L45.739 236.177C46.805 235.215 47.598 234.422 48.118 233.798C48.664 233.174 48.937 232.641 48.937 232.199C48.937 231.601 48.482 231.302 47.572 231.302C46.87 231.302 46.077 231.484 45.193 231.848C44.309 232.186 43.464 232.654 42.658 233.252H41.839L40.552 227.324C43.776 225.686 46.74 224.867 49.444 224.867ZM74.053 225.998L73.936 230.522H76.588L81.112 230.405L81.541 230.951L81.073 236.645L76.042 236.528H73.78V237.035L74.092 245.225H66.253L66.643 237.815L66.253 219.992H83.101L83.53 220.538L83.023 226.232L76.783 225.998H74.053ZM95.9975 226.778C96.3355 226.778 96.6345 226.804 96.8945 226.856V233.681L96.1535 233.915C95.8155 233.707 95.3475 233.603 94.7495 233.603C94.1775 233.603 93.5665 233.733 92.9165 233.993C92.2925 234.253 91.7075 234.617 91.1615 235.085V237.035L91.4735 245.225H83.8685L84.2195 237.815L83.9465 227.246L91.1615 226.739V230.171H91.5125C92.6305 227.909 94.1255 226.778 95.9975 226.778ZM106.653 226.349C109.045 226.349 110.891 226.843 112.191 227.831C113.491 228.793 114.141 230.184 114.141 232.004C114.141 232.524 114.089 233.902 113.985 236.138C113.881 238.114 113.829 239.219 113.829 239.453C113.829 239.739 113.868 239.947 113.946 240.077C114.05 240.207 114.193 240.272 114.375 240.272C114.557 240.272 114.778 240.233 115.038 240.155L115.506 240.545L114.843 244.445C113.881 245.121 112.672 245.511 111.216 245.615C110.462 245.563 109.786 245.303 109.188 244.835C108.616 244.367 108.174 243.704 107.862 242.846H107.589C106.445 244.172 105.145 245.108 103.689 245.654C101.713 245.628 100.127 245.082 98.9307 244.016C97.7607 242.924 97.1757 241.442 97.1757 239.57C97.1757 236.684 98.6707 235.033 101.661 234.617L107.199 233.876V233.408C107.199 232.732 107.056 232.251 106.77 231.965C106.51 231.679 106.042 231.536 105.366 231.536C103.91 231.536 102.025 232.16 99.7107 233.408L99.2427 233.096L98.4237 228.299C99.6197 227.675 100.933 227.194 102.363 226.856C103.819 226.518 105.249 226.349 106.653 226.349ZM104.976 237.503C104.612 237.555 104.339 237.698 104.157 237.932C104.001 238.14 103.923 238.465 103.923 238.907C103.923 239.947 104.404 240.467 105.366 240.467C105.99 240.467 106.601 240.259 107.199 239.843V237.191L104.976 237.503ZM128.334 245.225L128.724 234.929C128.724 233.343 128.113 232.55 126.891 232.55C126.293 232.55 125.682 232.732 125.058 233.096V237.035L125.37 245.225H117.765L118.116 237.815L117.843 227.246L125.058 226.739V229.469H125.331C126.683 228.117 128.204 227.155 129.894 226.583C131.844 226.583 133.326 227.025 134.34 227.909C135.38 228.793 135.874 230.067 135.822 231.731L135.666 237.035L135.939 245.225H128.334ZM153.292 234.968C154.514 237.464 156.165 240.467 158.245 243.977L158.206 244.757C156.516 245.095 154.137 245.407 151.069 245.693L150.289 245.303C148.755 242.495 147.455 239.596 146.389 236.606V237.035L146.701 245.225H139.096L139.447 237.815L139.174 218.354L146.74 217.847L146.428 234.539L149.392 229.001L150.211 226.817H157.972L153.292 234.968Z" fill="#2C1E25"/>
<path d="M5.4375 199.961L198.696 186.37V197.944L5.74966 211.182L5.4375 199.961Z" fill="#2E5A9C"/>
<path d="M18.8906 199.01L5.40234 199.959L5.56235 211.196L19.6211 210.233L18.8906 199.01Z" fill="#3F7AD3"/>
<defs>
<clipPath id="clip0">
<rect width="68" height="132" fill="white" transform="translate(80.1641 67.5532) rotate(12.5502)"/>
</clipPath>
</defs>
</svg>

<svg width="210" height="274" fill="none" xmlns="http://www.w3.org/2000/svg"><path d="M12.793 10.096L209.66 22.447l-8.521 244.271-180.111 7.219-8.235-263.84z" fill="#2E5A9C"/><path d="M.574.417l196.868 12.35-8.521 248.396-180.112 7.219L.574.417z" fill="#F87980"/><path d="M36.908 47.94c2.176-1.537 3.456-3.745 3.456-6.177 0-4.128-2.624-6.4-7.264-6.4l-9.824.032.32 14.624-.32 6.08h6.432l-.224-6.176h2.144c.864 2.048 1.824 4.064 2.752 6.048l.608.512A27.167 27.167 0 0041.42 55.3l.096-.704a112.47 112.47 0 01-4.608-6.656zm-3.296-5.537c0 1.536-.512 2.432-1.728 2.976l-2.336-.128.128-5.344 1.152-.096c1.952.096 2.784.864 2.784 2.592zm18.531-7.392c-6.592 0-10.368 4.032-10.368 11.104 0 6.592 3.424 10.368 9.44 10.368 6.592 0 10.368-4.096 10.368-11.264 0-6.496-3.424-10.208-9.44-10.208zm-.576 5.12c2.592 0 3.296 1.312 3.296 6.464 0 4.096-.672 5.152-3.072 5.152-2.592 0-3.296-1.312-3.296-6.496 0-4.064.672-5.12 3.072-5.12zm21.834-5.088c-6.848 0-10.72 4-10.72 10.88 0 6.816 3.424 10.528 10.368 10.528 1.408 0 2.944-.128 4.448-.608l.512-5.056-.512-.32c-1.152.416-2.784.672-3.936.672-2.816 0-4.096-1.824-4.096-5.952 0-3.552 1.12-4.928 3.68-4.928 1.216 0 2.816.384 3.936.992l.416-.256 1.088-5.088c-1.536-.544-3.264-.864-5.184-.864zm25.238.352h-6.784l-1.088 2.24-3.968 6.4.224-8.64h-6.528l.32 14.624-.32 6.08h6.432l-.256-6.72.064-2.784c1.728 3.232 3.52 6.368 5.344 9.504l.704.384a49.291 49.291 0 006.4-1.024l.096-.704c-2.368-3.104-4.64-6.304-6.72-9.568l6.08-9.792zm19.23 10.496l.224-10.496h-6.528l.288 12.928c.032 2.176-.8 3.104-2.816 3.104-1.984 0-2.784-.928-2.752-3.104l.288-12.928h-6.432l.192 10.496-.096 3.296c-.128 4.704 2.944 7.296 8.544 7.296 5.792 0 9.024-2.592 9.056-7.296l.032-3.296zM138.35 56.1l-5.664-20.704h-7.744L118.67 56.1h6.272l.544-3.456 2.624-.128 3.136.064.032.096.576 3.424h6.496zm-8.064-8.192l-1.792.032-1.792-.032 1.792-6.784h.384l1.408 6.784zm23.935.032c2.176-1.536 3.456-3.744 3.456-6.176 0-4.128-2.624-6.4-7.264-6.4l-9.824.032.32 14.624-.32 6.08h6.432l-.224-6.176h2.144c.864 2.048 1.824 4.064 2.752 6.048l.608.512a27.167 27.167 0 006.432-1.184l.096-.704a112.47 112.47 0 01-4.608-6.656zm-3.296-5.536c0 1.536-.512 2.432-1.728 2.976l-2.336-.128.128-5.344 1.152-.096c1.952.096 2.784.864 2.784 2.592zm24.035-6.56l-.352-.448h-15.456l-.352 4.672.384.448 4.256-.192h.416l.16 9.696-.32 6.08h6.4l-.256-6.72.16-9.056h.384l4.224.192.352-4.672z" fill="#2C1E25"/><g clip-path="url(#clip0)"><path d="M70.107 197.599l.989-5.598-.989-7.28-4.54-5.913-.68-3.641 4.995-12.156 9.11-20.59 11.687-24.28 12.016-28.149 10.649-11.003 11.511-1.487 11.319 4.758 4.992 9.743.775 10.989-3.663 7.843-6.892 6.325-8.776 4.147-4.546 5.115 1.409 10.171 3.84 19.104.529 11.734-3.266 10.009-6.306.941-6.672 2.111-6.276 4.277-4.866 7.389-1.222 4.535-25.127.906z" fill="#FFF1F0"/><path d="M107.926 98.058l1.825 2.324-1.299 4.4-3.526 1.373-3.279-3.927 2.212-3.717 4.067-.453zM101.211 114.118l1.788 3.329-2.139 5.545-3.653-.814-2.162-4.397 1.778-3.92 4.388.257zM93.746 129.347l1.608 2.702-1.4 3.658-3.171 1.212-2.496-2.181-.514-4.51 1.534-1.15 4.439.269zM86.816 143.497l1.954 2.46-2.277 4.608-3.677-1.298-1.154-2.948 2.186-3.003 2.968.181zM81.27 157.048l1.165 3.376-2.06 3.032-3.398.202-1.557-4.129 2.426-3.243 3.424.762zM75.901 170.879l.424 3.478-3.321 1.765-2.866-.638-.965-2.719 2.366-3.576 4.337.965.025.725zM70.065 162.545l-2.167-.908-1.793.879-6.028-1.981-.244-1.653 2.759-4.021 6.841 2.988-.406 1.588 1.896 1.168-.858 1.94zM75.63 149.985l-1.623-.361-.9 1.052-4.384-1.349-3.195-2.63s2.542-4.363 2.694-4.329c.152.034 3.59.373 3.59.373l2.93 2.145 1.305 1.675-.883.736 1.31.691-.843 1.997zM81.365 137.488l-1.962-.996-.547 1.024-4.616-1.028-2.547-1.712 1.159-5.204 2.46.548 4.26 2.387 1.527 1.512-.933.485 2.186.939-.987 2.045zM87.666 124.371l-1.837-1.075-.294 1.32-2.947-1.349-5.168-2.855.89-2.44 1.358-1.562 3.663 2.44 3.41 1.425-.401 1.083 2.313.968-.987 2.045zM93.961 110.454l-2.395-1.199-.66 1.291-3.487.237-4.71-2.275 1.358-5.026 3.211-3.068 5.78 3.098-.27 2.285.062 1.639 2.05.829-.939 2.189zM100.251 95.709l-1.832-.861-2.817 2.97-4.083-1.629-1.458-4.214.808-3.63 3.923-3.15 5.638 2.774-.778 4.809 1.646.5-1.047 2.43z" fill="#2C1E25"/><path d="M73.006 176.122l-1.164 21.44h1.033l1.075-22.455-.944 1.015zM77.004 197.358l3.888-34.666-.747.126-3.864 34.54h.723zM80.068 197.252l6.127-47.499.572-.539-5.597 48.038h-1.102zM84.43 197.081l8.148-62.133.634.141-8.014 61.992h-.767zM88.639 196.913l11.142-76.026.66.147-11.2 75.879h-.602zM92.144 196.776l15.668-94.375.457.102-15.433 94.273h-.692z" fill="#2C1E25"/><path d="M92.5 167.113l6.417.469.294 3.103-7.029-.473.318-3.099z" fill="#2C1E25"/></g><path d="M49.444 224.867c2.08 0 3.783.468 5.109 1.404 1.326.91 1.989 2.197 1.989 3.861 0 1.066-.325 2.197-.975 3.393-.624 1.17-1.69 2.509-3.198 4.017l-1.716 1.716.117.195h3.003l3.783-.39.39.468-.858 6.006-5.616-.312h-8.97l-1.404.117-.351-.273v-4.602l4.992-4.29c1.066-.962 1.859-1.755 2.379-2.379.546-.624.819-1.157.819-1.599 0-.598-.455-.897-1.365-.897-.702 0-1.495.182-2.379.546a10.6 10.6 0 00-2.535 1.404h-.819l-1.287-5.928c3.224-1.638 6.188-2.457 8.892-2.457zm24.609 1.131l-.117 4.524h2.652l4.524-.117.429.546-.468 5.694-5.031-.117H73.78v.507l.312 8.19h-7.839l.39-7.41-.39-17.823h16.848l.429.546-.507 5.694-6.24-.234h-2.73zm21.945.78c.337 0 .636.026.896.078v6.825l-.74.234c-.338-.208-.806-.312-1.404-.312-.573 0-1.183.13-1.834.39a6.578 6.578 0 00-1.754 1.092v1.95l.311 8.19h-7.605l.352-7.41-.273-10.569 7.215-.507v3.432h.35c1.118-2.262 2.614-3.393 4.486-3.393zm10.655-.429c2.392 0 4.238.494 5.538 1.482 1.3.962 1.95 2.353 1.95 4.173 0 .52-.052 1.898-.156 4.134-.104 1.976-.156 3.081-.156 3.315 0 .286.039.494.117.624a.52.52 0 00.429.195c.182 0 .403-.039.663-.117l.468.39-.663 3.9c-.962.676-2.171 1.066-3.627 1.17a3.626 3.626 0 01-2.028-.78c-.572-.468-1.014-1.131-1.326-1.989h-.273c-1.144 1.326-2.444 2.262-3.9 2.808-1.976-.026-3.562-.572-4.758-1.638-1.17-1.092-1.755-2.574-1.755-4.446 0-2.886 1.495-4.537 4.485-4.953l5.538-.741v-.468c0-.676-.143-1.157-.429-1.443-.26-.286-.728-.429-1.404-.429-1.456 0-3.341.624-5.655 1.872l-.468-.312-.82-4.797a16.866 16.866 0 013.94-1.443 18.932 18.932 0 014.29-.507zm-1.677 11.154c-.364.052-.637.195-.819.429-.156.208-.234.533-.234.975 0 1.04.481 1.56 1.443 1.56.624 0 1.235-.208 1.833-.624v-2.652l-2.223.312zm23.358 7.722l.39-10.296c0-1.586-.611-2.379-1.833-2.379-.598 0-1.209.182-1.833.546v3.939l.312 8.19h-7.605l.351-7.41-.273-10.569 7.215-.507v2.73h.273c1.352-1.352 2.873-2.314 4.563-2.886 1.95 0 3.432.442 4.446 1.326 1.04.884 1.534 2.158 1.482 3.822l-.156 5.304.273 8.19h-7.605zm24.958-10.257c1.222 2.496 2.873 5.499 4.953 9.009l-.039.78c-1.69.338-4.069.65-7.137.936l-.78-.39a60.478 60.478 0 01-3.9-8.697v.429l.312 8.19h-7.605l.351-7.41-.273-19.461 7.566-.507-.312 16.692 2.964-5.538.819-2.184h7.761l-4.68 8.151z" fill="#2C1E25"/><path d="M5.438 199.961l193.258-13.591v11.574L5.75 211.182l-.313-11.221z" fill="#2E5A9C"/><path d="M18.89 199.01l-13.488.949.16 11.237 14.06-.963-.731-11.223z" fill="#3F7AD3"/><defs><clipPath id="clip0"><path fill="#fff" transform="rotate(12.55 -267.086 398.288)" d="M0 0h68v132H0z"/></clipPath></defs></svg>
